X:4050
T:Mary o' the Wisp
O:england
R:reel
D:The Brass Fiddle
M:C|
K:D
Ad~d2 ecdB|Addc dedB|Adde fdeg|fage fdBG|
Ad~d2 ecdB|Addc dedB|Adde faed|1 cA (3AAA cBAA:|2 cA (3AAA cA (3AAA||
|:fdge fdge|fdge fdB2|fage fefg|aA (3AAA aA (3AAA|
fdge fdge|fage fefg|abaf eged|cA (3AAA cBAA:|
